elevator-passenger-off-outline.svg

<svg fill="currentColor" viewBox="0 0 24 24"><path d="M22.11 21.46 2.39 1.73 1.11 3 3 4.9V19c0 1.1.9 2 2 2h14.1l1.74 1.73zM5 19V6.89l2.65 2.65C6.71 9.71 6 10.5 6 11.5V14h1v4h3v-4h1v-1.11L17.11 19zM8.2 5l-2-2H19c1.1 0 2 .9 2 2v12.8l-2-2V5zm9.8 6h-3.8l-.74-.74L15.5 7zm-.69 3.11L16.2 13H18z"/></svg>

<svg  viewBox="0 0 24 24" fill="currentColor"><path  d="M22.11 21.46L2.39 1.73L1.11 3L3 4.9C3 4.94 3 4.97 3 5V19C3 20.1 3.9 21 5 21H19C19.03 21 19.06 21 19.1 21L20.84 22.73L22.11 21.46M5 19V6.89L7.65 9.54C6.71 9.71 6 10.5 6 11.5V14H7V18H10V14H11V12.89L17.11 19H5M8.2 5L6.2 3H19C20.1 3 21 3.9 21 5V17.8L19 15.8V5H8.2M18 11H14.2L13.46 10.26L15.5 7L18 11M17.31 14.11L16.2 13H18L17.31 14.11Z"/></svg>
